static/img/kroki/abae5a7d2ef525fa828ca2a305968bb7.svg

<?xml version="1.0" encoding="us-ascii" standalone="no"?><svg xmlns="http://www.w3.org/2000/svg" xmlns:xlink="http://www.w3.org/1999/xlink" contentStyleType="text/css" height="352px" preserveAspectRatio="none" style="width:808px;height:352px;" version="1.1" viewBox="0 0 808 352" width="808px" zoomAndPan="magnify"><defs/><g><!--class aws_ec2_instance--><g id="elem_aws_ec2_instance"><rect codeLine="23" fill="#3D176E" height="39.7891" id="aws_ec2_instance" rx="2.5" ry="2.5" style="stroke:#000D19;stroke-width:0.5;" width="192" x="7" y="306.37"/><ellipse cx="22" cy="326.2645" fill="#ADD1B2" rx="11" ry="11" style="stroke:#181818;stroke-width:1.0;"/><path d="M24.9688,331.9052 Q24.3906,332.202 23.75,332.3427 Q23.1094,332.4989 22.4063,332.4989 Q19.9063,332.4989 18.5781,330.8583 Q17.2656,329.202 17.2656,326.077 Q17.2656,322.952 18.5781,321.2958 Q19.9063,319.6395 22.4063,319.6395 Q23.1094,319.6395 23.75,319.7958 Q24.4063,319.952 24.9688,320.2489 L24.9688,322.9677 Q24.3438,322.3895 23.75,322.1239 Q23.1563,321.8427 22.5313,321.8427 Q21.1875,321.8427 20.5,322.9208 Q19.8125,323.9833 19.8125,326.077 Q19.8125,328.1708 20.5,329.2489 Q21.1875,330.3114 22.5313,330.3114 Q23.1563,330.3114 23.75,330.0458 Q24.3438,329.7645 24.9688,329.1864 L24.9688,331.9052 Z " fill="#000000"/><text fill="#D9B8FF" font-family="Helvetica" font-size="17" lengthAdjust="spacing" textLength="150" x="41" y="332.1498">aws_ec2_instance</text></g><!--class aws_ec2_instance_type--><g id="elem_aws_ec2_instance_type"><rect codeLine="26" fill="#3D176E" height="39.7891" id="aws_ec2_instance_type" rx="2.5" ry="2.5" style="stroke:#000D19;stroke-width:0.5;" width="238" x="244" y="206.58"/><ellipse cx="259" cy="226.4745" fill="#ADD1B2" rx="11" ry="11" style="stroke:#181818;stroke-width:1.0;"/><path d="M261.9688,232.1152 Q261.3906,232.412 260.75,232.5527 Q260.1094,232.7089 259.4063,232.7089 Q256.9063,232.7089 255.5781,231.0683 Q254.2656,229.412 254.2656,226.287 Q254.2656,223.162 255.5781,221.5058 Q256.9063,219.8495 259.4063,219.8495 Q260.1094,219.8495 260.75,220.0058 Q261.4063,220.162 261.9688,220.4589 L261.9688,223.1777 Q261.3438,222.5995 260.75,222.3339 Q260.1563,222.0527 259.5313,222.0527 Q258.1875,222.0527 257.5,223.1308 Q256.8125,224.1933 256.8125,226.287 Q256.8125,228.3808 257.5,229.4589 Q258.1875,230.5214 259.5313,230.5214 Q260.1563,230.5214 260.75,230.2558 Q261.3438,229.9745 261.9688,229.3964 L261.9688,232.1152 Z " fill="#000000"/><text fill="#D9B8FF" font-family="Helvetica" font-size="17" lengthAdjust="spacing" textLength="196" x="278" y="232.3598">aws_ec2_instance_type</text></g><!--class aws_ec2_reserved_instances--><g id="elem_aws_ec2_reserved_instances"><rect codeLine="29" fill="#3D176E" height="39.7891" id="aws_ec2_reserved_instances" rx="2.5" ry="2.5" style="stroke:#000D19;stroke-width:0.5;" width="281" x="234.5" y="306.37"/><ellipse cx="249.5" cy="326.2645" fill="#ADD1B2" rx="11" ry="11" style="stroke:#181818;stroke-width:1.0;"/><path d="M252.4688,331.9052 Q251.8906,332.202 251.25,332.3427 Q250.6094,332.4989 249.9063,332.4989 Q247.4063,332.4989 246.0781,330.8583 Q244.7656,329.202 244.7656,326.077 Q244.7656,322.952 246.0781,321.2958 Q247.4063,319.6395 249.9063,319.6395 Q250.6094,319.6395 251.25,319.7958 Q251.9063,319.952 252.4688,320.2489 L252.4688,322.9677 Q251.8438,322.3895 251.25,322.1239 Q250.6563,321.8427 250.0313,321.8427 Q248.6875,321.8427 248,322.9208 Q247.3125,323.9833 247.3125,326.077 Q247.3125,328.1708 248,329.2489 Q248.6875,330.3114 250.0313,330.3114 Q250.6563,330.3114 251.25,330.0458 Q251.8438,329.7645 252.4688,329.1864 L252.4688,331.9052 Z " fill="#000000"/><text fill="#D9B8FF" font-family="Helvetica" font-size="17" lengthAdjust="spacing" textLength="239" x="268.5" y="332.1498">aws_ec2_reserved_instances</text></g><!--class aws_opensearch_domain--><g id="elem_aws_opensearch_domain"><rect codeLine="32" fill="#3D176E" height="39.7891" id="aws_opensearch_domain" rx="2.5" ry="2.5" style="stroke:#000D19;stroke-width:0.5;" width="251" x="550.5" y="306.37"/><ellipse cx="565.5" cy="326.2645" fill="#ADD1B2" rx="11" ry="11" style="stroke:#181818;stroke-width:1.0;"/><path d="M568.4688,331.9052 Q567.8906,332.202 567.25,332.3427 Q566.6094,332.4989 565.9063,332.4989 Q563.4063,332.4989 562.0781,330.8583 Q560.7656,329.202 560.7656,326.077 Q560.7656,322.952 562.0781,321.2958 Q563.4063,319.6395 565.9063,319.6395 Q566.6094,319.6395 567.25,319.7958 Q567.9063,319.952 568.4688,320.2489 L568.4688,322.9677 Q567.8438,322.3895 567.25,322.1239 Q566.6563,321.8427 566.0313,321.8427 Q564.6875,321.8427 564,322.9208 Q563.3125,323.9833 563.3125,326.077 Q563.3125,328.1708 564,329.2489 Q564.6875,330.3114 566.0313,330.3114 Q566.6563,330.3114 567.25,330.0458 Q567.8438,329.7645 568.4688,329.1864 L568.4688,331.9052 Z " fill="#000000"/><text fill="#D9B8FF" font-family="Helvetica" font-size="17" lengthAdjust="spacing" textLength="209" x="584.5" y="332.1498">aws_opensearch_domain</text></g><!--class aws_region--><g id="elem_aws_region"><rect codeLine="35" fill="#3D176E" height="39.7891" id="aws_region" rx="2.5" ry="2.5" style="stroke:#000D19;stroke-width:0.5;" width="137" x="141.5" y="7"/><ellipse cx="156.5" cy="26.8945" fill="#ADD1B2" rx="11" ry="11" style="stroke:#181818;stroke-width:1.0;"/><path d="M159.4688,32.5352 Q158.8906,32.832 158.25,32.9727 Q157.6094,33.1289 156.9063,33.1289 Q154.4063,33.1289 153.0781,31.4883 Q151.7656,29.832 151.7656,26.707 Q151.7656,23.582 153.0781,21.9258 Q154.4063,20.2695 156.9063,20.2695 Q157.6094,20.2695 158.25,20.4258 Q158.9063,20.582 159.4688,20.8789 L159.4688,23.5977 Q158.8438,23.0195 158.25,22.7539 Q157.6563,22.4727 157.0313,22.4727 Q155.6875,22.4727 155,23.5508 Q154.3125,24.6133 154.3125,26.707 Q154.3125,28.8008 155,29.8789 Q155.6875,30.9414 157.0313,30.9414 Q157.6563,30.9414 158.25,30.6758 Q158.8438,30.3945 159.4688,29.8164 L159.4688,32.5352 Z " fill="#000000"/><text fill="#D9B8FF" font-family="Helvetica" font-size="17" lengthAdjust="spacing" textLength="95" x="175.5" y="32.7798">aws_region</text></g><!--class aws_service_quota--><g id="elem_aws_service_quota"><rect codeLine="38" fill="#3D176E" height="39.7891" id="aws_service_quota" rx="2.5" ry="2.5" style="stroke:#000D19;stroke-width:0.5;" width="199" x="263.5" y="106.79"/><ellipse cx="278.5" cy="126.6845" fill="#ADD1B2" rx="11" ry="11" style="stroke:#181818;stroke-width:1.0;"/><path d="M281.4688,132.3252 Q280.8906,132.622 280.25,132.7627 Q279.6094,132.9189 278.9063,132.9189 Q276.4063,132.9189 275.0781,131.2783 Q273.7656,129.622 273.7656,126.497 Q273.7656,123.372 275.0781,121.7158 Q276.4063,120.0595 278.9063,120.0595 Q279.6094,120.0595 280.25,120.2158 Q280.9063,120.372 281.4688,120.6689 L281.4688,123.3877 Q280.8438,122.8095 280.25,122.5439 Q279.6563,122.2627 279.0313,122.2627 Q277.6875,122.2627 277,123.3408 Q276.3125,124.4033 276.3125,126.497 Q276.3125,128.5908 277,129.6689 Q277.6875,130.7314 279.0313,130.7314 Q279.6563,130.7314 280.25,130.4658 Q280.8438,130.1845 281.4688,129.6064 L281.4688,132.3252 Z " fill="#000000"/><text fill="#D9B8FF" font-family="Helvetica" font-size="17" lengthAdjust="spacing" textLength="157" x="297.5" y="132.5698">aws_service_quota</text></g><!--link aws_ec2_instance_type to aws_ec2_instance--><g id="link_aws_ec2_instance_type_aws_ec2_instance"><path codeLine="41" d="M311.63,246.8 C266.05,263.94 205.4256,286.7369 159.8756,303.8769 " fill="none" id="aws_ec2_instance_type-to-aws_ec2_instance" style="stroke:#1A83AF;stroke-width:2.0;"/><polygon fill="#1A83AF" points="154.26,305.99,164.0921,306.5641,158.9397,304.2291,161.2747,299.0766,154.26,305.99" style="stroke:#1A83AF;stroke-width:2.0;"/></g><!--link aws_ec2_instance_type to aws_ec2_reserved_instances--><g id="link_aws_ec2_instance_type_aws_ec2_reserved_instances"><path codeLine="42" d="M365.37,246.8 C367.47,263.94 369.8003,282.8945 371.9003,300.0345 " fill="none" id="aws_ec2_instance_type-to-aws_ec2_reserved_instances" style="stroke:#1A83AF;stroke-width:2.0;"/><polygon fill="#1A83AF" points="372.63,305.99,375.5058,296.5704,372.0219,301.0271,367.5652,297.5432,372.63,305.99" style="stroke:#1A83AF;stroke-width:2.0;"/></g><!--link aws_ec2_instance_type to aws_opensearch_domain--><g id="link_aws_ec2_instance_type_aws_opensearch_domain"><path codeLine="43" d="M424.84,246.8 C479.62,263.91 553.4731,286.9805 608.2931,304.1105 " fill="none" id="aws_ec2_instance_type-to-aws_opensearch_domain" style="stroke:#1A83AF;stroke-width:2.0;"/><polygon fill="#1A83AF" points="614.02,305.9,606.6226,299.3978,609.2476,304.4087,604.2366,307.0336,614.02,305.9" style="stroke:#1A83AF;stroke-width:2.0;"/></g><!--link aws_region to aws_ec2_instance--><g id="link_aws_region_aws_ec2_instance"><path codeLine="44" d="M203.14,46.95 C183.86,100.53 131.3514,246.4844 111.9714,300.3444 " fill="none" id="aws_region-to-aws_ec2_instance" style="stroke:#1A83AF;stroke-width:2.0;"/><polygon fill="#1A83AF" points="109.94,305.99,116.7509,298.8758,111.6329,301.2853,109.2234,296.1672,109.94,305.99" style="stroke:#1A83AF;stroke-width:2.0;"/></g><!--link aws_region to aws_ec2_instance_type--><g id="link_aws_region_aws_ec2_instance_type"><path codeLine="45" d="M211.81,46.92 C215.01,71.94 223.62,116.27 246,146.58 C265.21,172.6 290.4325,189.9241 315.4725,203.3541 " fill="none" id="aws_region-to-aws_ec2_instance_type" style="stroke:#1A83AF;stroke-width:2.0;"/><polygon fill="#1A83AF" points="320.76,206.19,314.7194,198.4111,316.3538,203.8267,310.9381,205.4611,320.76,206.19" style="stroke:#1A83AF;stroke-width:2.0;"/></g><!--link aws_region to aws_service_quota--><g id="link_aws_region_aws_service_quota"><path codeLine="46" d="M240.23,47.22 C267.05,64.36 300.9745,86.0486 327.7745,103.1786 " fill="none" id="aws_region-to-aws_service_quota" style="stroke:#1A83AF;stroke-width:2.0;"/><polygon fill="#1A83AF" points="332.83,106.41,327.401,98.1926,328.6171,103.7172,323.0925,104.9333,332.83,106.41" style="stroke:#1A83AF;stroke-width:2.0;"/></g><!--link aws_service_quota to aws_ec2_instance_type--><g id="link_aws_service_quota_aws_ec2_instance_type"><path codeLine="47" d="M363,147.01 C363,164.15 363,183.06 363,200.2 " fill="none" id="aws_service_quota-to-aws_ec2_instance_type" style="stroke:#1A83AF;stroke-width:2.0;"/><polygon fill="#1A83AF" points="363,206.2,367,197.2,363,201.2,359,197.2,363,206.2" style="stroke:#1A83AF;stroke-width:2.0;"/></g><!--SRC=[bP1FJm8n4CNl-ocQS2PX8GfSJ5OIeXTYn9incw6TiWsxxJej43H-TrbGKrh-UPttcpVlJQ44Cgngjs4LLZCaczY5qZKGL2mZCkkHAGsnbfGWU_rG71ljBW8Jg90zOBb2fpY4n4kX-4AZjQphIVV05tCoIotszev0sws4sddKg0HhC-T8pPOElJ1YE1j86PAXQQidqlujHfWXWVI3T3eTaGv3vEAfixt_YAdwG9RwJviOXr7CwCIEEfko8RoGKT5V_MJ69n12wJcxyMRF-qoaaGxcqmA4MJUqXDBwPwn3GkCsDOwYLZWS2Da_2Z-UWXFUl8x1skR8kxdIre7co3wJvEk4bZU6nm12YxH2yKVQa38rQej0lCY5gK3f422SAnDD6rkrFVo-D0xsul5GxTTMcWrwsVYjVHVb_izENENQxQXYulMwdEyQS7VvB7tmi2H-uHNstm00]--></g></svg>

<svg xmlns="http://www.w3.org/2000/svg" width="808" height="352" viewBox="0 0 808 352"><rect width="192" height="39.789" x="7" y="306.37" fill="#3D176E" rx="2.5" ry="2.5" style="stroke:#000d19;stroke-width:.5"/><circle cx="22" cy="326.264" r="11" fill="#ADD1B2" style="stroke:#181818;stroke-width:1"/><path d="M24.969 331.905q-.578.297-1.219.438-.64.156-1.344.156-2.5 0-3.828-1.64-1.312-1.657-1.312-4.782t1.312-4.781q1.328-1.656 3.828-1.656.703 0 1.344.156.656.156 1.219.453v2.719q-.625-.579-1.219-.844-.594-.281-1.219-.281-1.343 0-2.031 1.078-.687 1.062-.687 3.156t.687 3.172q.688 1.062 2.031 1.062.625 0 1.219-.265.594-.281 1.219-.86z"/><text x="41" y="332.15" fill="#D9B8FF" font-family="Helvetica" font-size="17" textLength="150">aws_ec2_instance</text><rect width="238" height="39.789" x="244" y="206.58" fill="#3D176E" rx="2.5" ry="2.5" style="stroke:#000d19;stroke-width:.5"/><circle cx="259" cy="226.475" r="11" fill="#ADD1B2" style="stroke:#181818;stroke-width:1"/><path d="M261.969 232.115q-.578.297-1.219.438-.64.156-1.344.156-2.5 0-3.828-1.64-1.312-1.657-1.312-4.782t1.312-4.781q1.328-1.656 3.828-1.656.703 0 1.344.156.656.156 1.219.453v2.719q-.625-.578-1.219-.844-.594-.281-1.219-.281-1.344 0-2.031 1.078-.687 1.062-.687 3.156t.687 3.172q.688 1.062 2.031 1.062.625 0 1.219-.265.594-.281 1.219-.86z"/><text x="278" y="232.36" fill="#D9B8FF" font-family="Helvetica" font-size="17" textLength="196">aws_ec2_instance_type</text><rect width="281" height="39.789" x="234.5" y="306.37" fill="#3D176E" rx="2.5" ry="2.5" style="stroke:#000d19;stroke-width:.5"/><circle cx="249.5" cy="326.264" r="11" fill="#ADD1B2" style="stroke:#181818;stroke-width:1"/><path d="M252.469 331.905q-.578.297-1.219.438-.64.156-1.344.156-2.5 0-3.828-1.64-1.312-1.657-1.312-4.782t1.312-4.781q1.328-1.656 3.828-1.656.703 0 1.344.156.656.156 1.219.453v2.719q-.625-.579-1.219-.844-.594-.281-1.219-.281-1.344 0-2.031 1.078-.687 1.062-.687 3.156t.687 3.172q.688 1.062 2.031 1.062.625 0 1.219-.265.594-.281 1.219-.86z"/><text x="268.5" y="332.15" fill="#D9B8FF" font-family="Helvetica" font-size="17" textLength="239">aws_ec2_reserved_instances</text><rect width="251" height="39.789" x="550.5" y="306.37" fill="#3D176E" rx="2.5" ry="2.5" style="stroke:#000d19;stroke-width:.5"/><circle cx="565.5" cy="326.264" r="11" fill="#ADD1B2" style="stroke:#181818;stroke-width:1"/><path d="M568.469 331.905q-.578.297-1.219.438-.64.156-1.344.156-2.5 0-3.828-1.64-1.312-1.657-1.312-4.782t1.312-4.781q1.328-1.656 3.828-1.656.703 0 1.344.156.656.156 1.219.453v2.719q-.625-.579-1.219-.844-.594-.281-1.219-.281-1.343 0-2.031 1.078-.687 1.062-.687 3.156t.687 3.172q.688 1.062 2.031 1.062.625 0 1.219-.265.594-.281 1.219-.86z"/><text x="584.5" y="332.15" fill="#D9B8FF" font-family="Helvetica" font-size="17" textLength="209">aws_opensearch_domain</text><rect width="137" height="39.789" x="141.5" y="7" fill="#3D176E" rx="2.5" ry="2.5" style="stroke:#000d19;stroke-width:.5"/><circle cx="156.5" cy="26.895" r="11" fill="#ADD1B2" style="stroke:#181818;stroke-width:1"/><path d="M159.469 32.535q-.578.297-1.219.438-.64.156-1.344.156-2.5 0-3.828-1.64-1.312-1.657-1.312-4.782t1.312-4.781q1.328-1.656 3.828-1.656.703 0 1.344.156.656.156 1.219.453v2.719q-.625-.578-1.219-.844-.594-.281-1.219-.281-1.344 0-2.031 1.078-.687 1.062-.687 3.156t.687 3.172q.688 1.062 2.031 1.062.625 0 1.219-.265.594-.281 1.219-.86z"/><text x="175.5" y="32.78" fill="#D9B8FF" font-family="Helvetica" font-size="17" textLength="95">aws_region</text><rect width="199" height="39.789" x="263.5" y="106.79" fill="#3D176E" rx="2.5" ry="2.5" style="stroke:#000d19;stroke-width:.5"/><circle cx="278.5" cy="126.684" r="11" fill="#ADD1B2" style="stroke:#181818;stroke-width:1"/><path d="M281.469 132.325q-.578.297-1.219.438-.64.156-1.344.156-2.5 0-3.828-1.64-1.312-1.657-1.312-4.782t1.312-4.781q1.328-1.656 3.828-1.656.703 0 1.344.156.656.156 1.219.453v2.719q-.625-.579-1.219-.844-.594-.281-1.219-.281-1.344 0-2.031 1.078-.687 1.062-.687 3.156t.687 3.172q.688 1.062 2.031 1.062.625 0 1.219-.265.594-.281 1.219-.86z"/><text x="297.5" y="132.57" fill="#D9B8FF" font-family="Helvetica" font-size="17" textLength="157">aws_service_quota</text><path fill="none" d="M311.63 246.8c-45.58 17.14-106.204 39.937-151.754 57.077" style="stroke:#1a83af;stroke-width:2"/><path fill="#1A83AF" d="m154.26 305.99 9.832.574-5.152-2.335 2.335-5.152z" style="stroke:#1a83af;stroke-width:2"/><path fill="none" d="M365.37 246.8c2.1 17.14 4.43 36.094 6.53 53.234" style="stroke:#1a83af;stroke-width:2"/><path fill="#1A83AF" d="m372.63 305.99 2.876-9.42-3.484 4.457-4.457-3.484z" style="stroke:#1a83af;stroke-width:2"/><path fill="none" d="M424.84 246.8c54.78 17.11 128.633 40.18 183.453 57.31" style="stroke:#1a83af;stroke-width:2"/><path fill="#1A83AF" d="m614.02 305.9-7.397-6.502 2.625 5.01-5.011 2.626z" style="stroke:#1a83af;stroke-width:2"/><path fill="none" d="M203.14 46.95c-19.28 53.58-71.789 199.534-91.169 253.394" style="stroke:#1a83af;stroke-width:2"/><path fill="#1A83AF" d="m109.94 305.99 6.81-7.114-5.117 2.41-2.41-5.119z" style="stroke:#1a83af;stroke-width:2"/><path fill="none" d="M211.81 46.92c3.2 25.02 11.81 69.35 34.19 99.66 19.21 26.02 44.433 43.344 69.473 56.774" style="stroke:#1a83af;stroke-width:2"/><path fill="#1A83AF" d="m320.76 206.19-6.04-7.779 1.634 5.416-5.416 1.634z" style="stroke:#1a83af;stroke-width:2"/><path fill="none" d="M240.23 47.22c26.82 17.14 60.744 38.829 87.545 55.959" style="stroke:#1a83af;stroke-width:2"/><path fill="#1A83AF" d="m332.83 106.41-5.429-8.217 1.216 5.524-5.525 1.216z" style="stroke:#1a83af;stroke-width:2"/><path fill="none" d="M363 147.01v53.19" style="stroke:#1a83af;stroke-width:2"/><path fill="#1A83AF" d="m363 206.2 4-9-4 4-4-4z" style="stroke:#1a83af;stroke-width:2"/></svg>
